flaticon/design/square-21.svg

<svg xmlns="http://www.w3.org/2000/svg" width="32" height="32" viewBox="0 0 24 24">
    <path d="M23.601562 23C23.4375 23 23.296875 23.097656 23.234375 23.234375 23.097656 23.296875 23 23.4375 23 23.601562 23 23.820312 23.179688 24 23.398438 24L24 24 24 23.398438C24 23.179688 23.820312 23 23.601562 23zM2.53125 23.199219L2.144531 23.199219C1.925781 23.199219 1.746094 23.378906 1.746094 23.601562 1.746094 23.820312 1.925781 24 2.144531 24L2.53125 24C2.753906 24 2.933594 23.820312 2.933594 23.601562 2.933594 23.378906 2.753906 23.199219 2.53125 23.199219zM17.988281 23.199219L17.605469 23.199219C17.382812 23.199219 17.203125 23.378906 17.203125 23.601562 17.203125 23.820312 17.382812 24 17.605469 24L17.988281 24C18.210938 24 18.390625 23.820312 18.390625 23.601562 18.390625 23.378906 18.210938 23.199219 17.988281 23.199219zM16.058594 23.199219L15.671875 23.199219C15.449219 23.199219 15.269531 23.378906 15.269531 23.601562 15.269531 23.820312 15.449219 24 15.671875 24L16.058594 24C16.277344 24 16.457031 23.820312 16.457031 23.601562 16.457031 23.378906 16.277344 23.199219 16.058594 23.199219zM8.328125 23.199219L7.941406 23.199219C7.722656 23.199219 7.542969 23.378906 7.542969 23.601562 7.542969 23.820312 7.722656 24 7.941406 24L8.328125 24C8.550781 24 8.730469 23.820312 8.730469 23.601562 8.730469 23.378906 8.550781 23.199219 8.328125 23.199219zM4.464844 23.199219L4.078125 23.199219C3.855469 23.199219 3.679688 23.378906 3.679688 23.601562 3.679688 23.820312 3.855469 24 4.078125 24L4.464844 24C4.6875 24 4.863281 23.820312 4.863281 23.601562 4.863281 23.378906 4.6875 23.199219 4.464844 23.199219zM19.921875 23.199219L19.535156 23.199219C19.3125 23.199219 19.136719 23.378906 19.136719 23.601562 19.136719 23.820312 19.3125 24 19.535156 24L19.921875 24C20.144531 24 20.324219 23.820312 20.324219 23.601562 20.324219 23.378906 20.144531 23.199219 19.921875 23.199219zM21.855469 23.199219L21.46875 23.199219C21.246094 23.199219 21.066406 23.378906 21.066406 23.601562 21.066406 23.820312 21.246094 24 21.46875 24L21.855469 24C22.074219 24 22.253906 23.820312 22.253906 23.601562 22.253906 23.378906 22.074219 23.199219 21.855469 23.199219zM10.261719 23.199219L9.875 23.199219C9.652344 23.199219 9.472656 23.378906 9.472656 23.601562 9.472656 23.820312 9.652344 24 9.875 24L10.261719 24C10.480469 24 10.660156 23.820312 10.660156 23.601562 10.660156 23.378906 10.480469 23.199219 10.261719 23.199219zM14.125 23.199219L13.738281 23.199219C13.519531 23.199219 13.339844 23.378906 13.339844 23.601562 13.339844 23.820312 13.519531 24 13.738281 24L14.125 24C14.347656 24 14.523438 23.820312 14.523438 23.601562 14.523438 23.378906 14.347656 23.199219 14.125 23.199219zM6.394531 23.199219L6.011719 23.199219C5.789062 23.199219 5.609375 23.378906 5.609375 23.601562 5.609375 23.820312 5.789062 24 6.011719 24L6.394531 24C6.617188 24 6.796875 23.820312 6.796875 23.601562 6.796875 23.378906 6.617188 23.199219 6.394531 23.199219zM12.191406 23.199219L11.808594 23.199219C11.585938 23.199219 11.40625 23.378906 11.40625 23.601562 11.40625 23.820312 11.585938 24 11.808594 24L12.191406 24C12.414062 24 12.59375 23.820312 12.59375 23.601562 12.59375 23.378906 12.414062 23.199219 12.191406 23.199219zM.765625 23.234375C.703125 23.097656.5625 23 .398438 23 .179688 23 0 23.179688 0 23.398438L0 24 .601562 24C.820312 24 1 23.820312 1 23.601562 1 23.4375.902344 23.296875.765625 23.234375zM.398438 18.390625C.621094 18.390625.800781 18.210938.800781 17.988281L.800781 17.605469C.800781 17.382812.621094 17.203125.398438 17.203125.179688 17.203125 0 17.382812 0 17.605469L0 17.988281C0 18.210938.179688 18.390625.398438 18.390625zM.398438 12.59375C.621094 12.59375.800781 12.414062.800781 12.191406L.800781 11.808594C.800781 11.585938.621094 11.40625.398438 11.40625.179688 11.40625 0 11.585938 0 11.808594L0 12.191406C0 12.414062.179688 12.59375.398438 12.59375zM.398438 6.796875C.621094 6.796875.800781 6.617188.800781 6.394531L.800781 6.011719C.800781 5.789062.621094 5.609375.398438 5.609375.179688 5.609375 0 5.789062 0 6.011719L0 6.394531C0 6.617188.179688 6.796875.398438 6.796875zM.398438 2.933594C.621094 2.933594.800781 2.753906.800781 2.53125L.800781 2.144531C.800781 1.925781.621094 1.746094.398438 1.746094.179688 1.746094 0 1.925781 0 2.144531L0 2.53125C0 2.753906.179688 2.933594.398438 2.933594zM.398438 22.253906C.621094 22.253906.800781 22.074219.800781 21.855469L.800781 21.46875C.800781 21.246094.621094 21.066406.398438 21.066406.179688 21.066406 0 21.246094 0 21.46875L0 21.855469C0 22.074219.179688 22.253906.398438 22.253906zM.398438 8.730469C.621094 8.730469.800781 8.550781.800781 8.328125L.800781 7.941406C.800781 7.722656.621094 7.542969.398438 7.542969.179688 7.542969 0 7.722656 0 7.941406L0 8.328125C0 8.550781.179688 8.730469.398438 8.730469zM.398438 20.324219C.621094 20.324219.800781 20.144531.800781 19.921875L.800781 19.535156C.800781 19.3125.621094 19.136719.398438 19.136719.179688 19.136719 0 19.3125 0 19.535156L0 19.921875C0 20.144531.179688 20.324219.398438 20.324219zM.398438 4.863281C.621094 4.863281.800781 4.6875.800781 4.464844L.800781 4.078125C.800781 3.855469.621094 3.679688.398438 3.679688.179688 3.679688 0 3.855469 0 4.078125L0 4.464844C0 4.6875.179688 4.863281.398438 4.863281zM.398438 16.457031C.621094 16.457031.800781 16.277344.800781 16.058594L.800781 15.671875C.800781 15.449219.621094 15.269531.398438 15.269531.179688 15.269531 0 15.449219 0 15.671875L0 16.058594C0 16.277344.179688 16.457031.398438 16.457031zM.398438 14.523438C.621094 14.523438.800781 14.347656.800781 14.125L.800781 13.738281C.800781 13.519531.621094 13.339844.398438 13.339844.179688 13.339844 0 13.519531 0 13.738281L0 14.125C0 14.347656.179688 14.523438.398438 14.523438zM.398438 10.660156C.621094 10.660156.800781 10.480469.800781 10.261719L.800781 9.875C.800781 9.652344.621094 9.472656.398438 9.472656.179688 9.472656 0 9.652344 0 9.875L0 10.261719C0 10.480469.179688 10.660156.398438 10.660156zM.601562 0L0 0 0 .601562C0 .820312.179688 1 .398438 1 .5625 1 .703125.902344.765625.765625.902344.703125 1 .5625 1 .398438 1 .179688.820312 0 .601562 0zM6.394531 0L6.011719 0C5.789062 0 5.609375.179688 5.609375.398438 5.609375.621094 5.789062.800781 6.011719.800781L6.394531.800781C6.617188.800781 6.796875.621094 6.796875.398438 6.796875.179688 6.617188 0 6.394531 0zM4.464844 0L4.078125 0C3.855469 0 3.675781.179688 3.675781.398438 3.675781.621094 3.855469.800781 4.078125.800781L4.464844.800781C4.6875.800781 4.863281.621094 4.863281.398438 4.863281.179688 4.6875 0 4.464844 0zM10.261719 0L9.875 0C9.652344 0 9.472656.179688 9.472656.398438 9.472656.621094 9.652344.800781 9.875.800781L10.261719.800781C10.480469.800781 10.660156.621094 10.660156.398438 10.660156.179688 10.480469 0 10.261719 0zM15.671875.800781L16.058594.800781C16.277344.800781 16.457031.621094 16.457031.398438 16.457031.179688 16.277344 0 16.058594 0L15.671875 0C15.449219 0 15.269531.179688 15.269531.398438 15.269531.621094 15.449219.800781 15.671875.800781zM8.328125 0L7.941406 0C7.722656 0 7.542969.179688 7.542969.398438 7.542969.621094 7.722656.800781 7.941406.800781L8.328125.800781C8.550781.800781 8.730469.621094 8.730469.398438 8.730469.179688 8.550781 0 8.328125 0zM19.535156.800781L19.921875.800781C20.144531.800781 20.320312.621094 20.320312.398438 20.320312.179688 20.144531 0 19.921875 0L19.535156 0C19.3125 0 19.136719.179688 19.136719.398438 19.136719.621094 19.3125.800781 19.535156.800781zM21.855469 0L21.46875 0C21.246094 0 21.066406.179688 21.066406.398438 21.066406.621094 21.246094.800781 21.46875.800781L21.855469.800781C22.074219.800781 22.253906.621094 22.253906.398438 22.253906.179688 22.074219 0 21.855469 0zM2.144531.800781L2.53125.800781C2.753906.800781 2.933594.621094 2.933594.398438 2.933594.179688 2.753906 0 2.53125 0L2.144531 0C1.925781 0 1.746094.179688 1.746094.398438 1.746094.621094 1.925781.800781 2.144531.800781zM17.988281 0L17.605469 0C17.382812 0 17.203125.179688 17.203125.398438 17.203125.621094 17.382812.800781 17.605469.800781L17.988281.800781C18.210938.800781 18.390625.621094 18.390625.398438 18.390625.179688 18.210938 0 17.988281 0zM11.808594.800781L12.191406.800781C12.414062.800781 12.59375.621094 12.59375.398438 12.59375.179688 12.414062 0 12.191406 0L11.808594 0C11.585938 0 11.40625.179688 11.40625.398438 11.40625.621094 11.585938.800781 11.808594.800781zM14.125 0L13.738281 0C13.519531 0 13.339844.179688 13.339844.398438 13.339844.621094 13.519531.800781 13.738281.800781L14.125.800781C14.347656.800781 14.523438.621094 14.523438.398438 14.523438.179688 14.347656 0 14.125 0zM23.398438 0C23.179688 0 23 .179688 23 .398438 23 .5625 23.097656.703125 23.234375.765625 23.296875.902344 23.4375 1 23.601562 1 23.820312 1 24 .820312 24 .601562L24 0zM23.601562 5.609375C23.378906 5.609375 23.199219 5.789062 23.199219 6.011719L23.199219 6.394531C23.199219 6.617188 23.378906 6.796875 23.601562 6.796875 23.820312 6.796875 24 6.617188 24 6.394531L24 6.011719C24 5.789062 23.820312 5.609375 23.601562 5.609375zM23.601562 9.476562C23.378906 9.476562 23.199219 9.652344 23.199219 9.875L23.199219 10.261719C23.199219 10.480469 23.378906 10.660156 23.601562 10.660156 23.820312 10.660156 24 10.480469 24 10.261719L24 9.875C24 9.652344 23.820312 9.476562 23.601562 9.476562zM23.601562 7.542969C23.378906 7.542969 23.199219 7.722656 23.199219 7.941406L23.199219 8.328125C23.199219 8.550781 23.378906 8.730469 23.601562 8.730469 23.820312 8.730469 24 8.550781 24 8.328125L24 7.941406C24 7.722656 23.820312 7.542969 23.601562 7.542969zM23.601562 3.675781C23.378906 3.675781 23.199219 3.855469 23.199219 4.078125L23.199219 4.464844C23.199219 4.6875 23.378906 4.863281 23.601562 4.863281 23.820312 4.863281 24 4.6875 24 4.464844L24 4.078125C24 3.855469 23.820312 3.675781 23.601562 3.675781zM23.601562 1.746094C23.378906 1.746094 23.199219 1.925781 23.199219 2.144531L23.199219 2.53125C23.199219 2.753906 23.378906 2.933594 23.601562 2.933594 23.820312 2.933594 24 2.753906 24 2.53125L24 2.144531C24 1.925781 23.820312 1.746094 23.601562 1.746094zM23.601562 17.203125C23.378906 17.203125 23.199219 17.382812 23.199219 17.605469L23.199219 17.988281C23.199219 18.210938 23.378906 18.390625 23.601562 18.390625 23.820312 18.390625 24 18.210938 24 17.988281L24 17.605469C24 17.382812 23.820312 17.203125 23.601562 17.203125zM23.601562 21.066406C23.378906 21.066406 23.199219 21.246094 23.199219 21.46875L23.199219 21.855469C23.199219 22.074219 23.378906 22.253906 23.601562 22.253906 23.820312 22.253906 24 22.074219 24 21.855469L24 21.46875C24 21.246094 23.820312 21.066406 23.601562 21.066406zM23.601562 19.136719C23.378906 19.136719 23.199219 19.3125 23.199219 19.535156L23.199219 19.921875C23.199219 20.144531 23.378906 20.320312 23.601562 20.320312 23.820312 20.320312 24 20.144531 24 19.921875L24 19.535156C24 19.3125 23.820312 19.136719 23.601562 19.136719zM23.601562 11.40625C23.378906 11.40625 23.199219 11.585938 23.199219 11.808594L23.199219 12.191406C23.199219 12.414062 23.378906 12.59375 23.601562 12.59375 23.820312 12.59375 24 12.414062 24 12.191406L24 11.808594C24 11.585938 23.820312 11.40625 23.601562 11.40625zM23.601562 13.339844C23.378906 13.339844 23.199219 13.519531 23.199219 13.738281L23.199219 14.125C23.199219 14.347656 23.378906 14.527344 23.601562 14.527344 23.820312 14.527344 24 14.347656 24 14.125L24 13.738281C24 13.519531 23.820312 13.339844 23.601562 13.339844zM23.601562 15.269531C23.378906 15.269531 23.199219 15.449219 23.199219 15.671875L23.199219 16.058594C23.199219 16.277344 23.378906 16.457031 23.601562 16.457031 23.820312 16.457031 24 16.277344 24 16.058594L24 15.671875C24 15.449219 23.820312 15.269531 23.601562 15.269531zM23.601562 15.269531"/>
</svg>

<svg xmlns="http://www.w3.org/2000/svg" width="32" height="32" viewBox="0 0 24 24">
    <path d="M23.602 23a.404.404 0 0 0-.368.234.4.4 0 0 0 .164.766H24v-.602a.4.4 0 0 0-.398-.398zm0 0M2.531 23.2h-.386a.401.401 0 0 0 0 .8h.386a.401.401 0 1 0 0-.8zm0 0M17.988 23.2h-.383a.401.401 0 0 0 0 .8h.383a.401.401 0 1 0 0-.8zm0 0M16.059 23.2h-.387a.401.401 0 0 0 0 .8h.387a.4.4 0 0 0 0-.8zm0 0M8.328 23.2h-.387a.401.401 0 0 0 0 .8h.387a.401.401 0 1 0 0-.8zm0 0M4.465 23.2h-.387a.398.398 0 0 0-.398.402c0 .218.175.398.398.398h.387c.223 0 .398-.18.398-.398a.398.398 0 0 0-.398-.403zm0 0M19.922 23.2h-.387a.398.398 0 0 0-.398.402c0 .218.175.398.398.398h.387a.401.401 0 1 0 0-.8zm0 0M21.855 23.2h-.386a.401.401 0 0 0 0 .8h.386a.4.4 0 0 0 0-.8zm0 0M10.262 23.2h-.387a.401.401 0 0 0 0 .8h.387a.4.4 0 0 0 0-.8zm0 0M14.125 23.2h-.387a.401.401 0 0 0 0 .8h.387c.223 0 .398-.18.398-.398a.398.398 0 0 0-.398-.403zm0 0M6.395 23.2h-.383a.401.401 0 0 0 0 .8h.383a.401.401 0 1 0 0-.8zm0 0M12.191 23.2h-.382a.401.401 0 0 0 0 .8h.382a.401.401 0 1 0 0-.8zm0 0M.766 23.234a.4.4 0 0 0-.766.164V24h.602a.4.4 0 0 0 .164-.766zm0 0M.398 18.39c.223 0 .403-.18.403-.402v-.383a.401.401 0 0 0-.8 0l-.001.383c0 .223.18.403.398.403zm0 0M.398 12.594c.223 0 .403-.18.403-.403v-.382a.401.401 0 0 0-.8 0l-.001.382c0 .223.18.403.398.403zm0 0M.398 6.797c.223 0 .403-.18.403-.402v-.383a.401.401 0 0 0-.8 0l-.001.383c0 .222.18.402.398.402zm0 0M.398 2.934c.223 0 .403-.18.403-.403v-.386a.401.401 0 0 0-.801 0v.386c0 .223.18.403.398.403zm0 0M.398 22.254c.223 0 .403-.18.403-.399v-.386a.401.401 0 0 0-.8 0l-.001.386a.4.4 0 0 0 .398.399zm0 0M.398 8.73c.223 0 .403-.18.403-.402v-.387a.401.401 0 0 0-.801 0v.387c0 .223.18.402.398.402zm0 0M.398 20.324c.223 0 .403-.18.403-.402v-.387a.398.398 0 0 0-.403-.398.398.398 0 0 0-.398.398v.387c0 .223.18.402.398.402zm0 0M.398 4.863a.398.398 0 0 0 .403-.398v-.387a.398.398 0 0 0-.403-.398.398.398 0 0 0-.398.398v.387c0 .223.18.398.398.398zm0 0M.398 16.457c.223 0 .403-.18.403-.398v-.387a.401.401 0 0 0-.8 0l-.001.387a.4.4 0 0 0 .398.398zm0 0M.398 14.523a.398.398 0 0 0 .403-.398v-.387a.401.401 0 0 0-.801 0v.387c0 .223.18.398.398.398zm0 0M.398 10.66c.223 0 .403-.18.403-.398v-.387a.401.401 0 0 0-.8 0l-.001.387a.4.4 0 0 0 .398.398zm0 0M.602 0H0v.602a.4.4 0 0 0 .766.164A.4.4 0 0 0 .602 0zm0 0M6.395 0h-.383a.401.401 0 1 0 0 .8h.383a.401.401 0 0 0 0-.8zm0 0M4.465 0h-.387a.401.401 0 1 0 0 .8h.387c.223 0 .398-.179.398-.402A.398.398 0 0 0 4.465 0zm0 0M10.262 0h-.387a.401.401 0 1 0 0 .8h.387a.401.401 0 0 0 0-.8zm0 0M15.672.8h.387a.401.401 0 0 0 0-.8h-.387a.401.401 0 1 0 0 .8zm0 0M8.328 0h-.387a.4.4 0 0 0 0 .8h.387a.401.401 0 0 0 0-.8zm0 0M19.535.8h.387c.223 0 .398-.179.398-.402A.398.398 0 0 0 19.922 0h-.387a.398.398 0 0 0-.398.398c0 .223.175.403.398.403zm0 0M21.855 0h-.386a.401.401 0 1 0 0 .8h.386a.401.401 0 0 0 0-.8zm0 0M2.145.8h.386a.401.401 0 0 0 0-.8h-.386a.4.4 0 0 0 0 .8zm0 0M17.988 0h-.383a.401.401 0 1 0 0 .8h.383a.401.401 0 0 0 0-.8zm0 0M11.809.8h.382a.401.401 0 0 0 0-.8h-.382a.401.401 0 1 0 0 .8zm0 0M14.125 0h-.387a.4.4 0 0 0 0 .8h.387c.223 0 .398-.179.398-.402A.398.398 0 0 0 14.125 0zm0 0M23.398 0a.4.4 0 0 0-.164.766A.4.4 0 0 0 24 .602V0zm0 0M23.602 5.61a.402.402 0 0 0-.403.402v.383a.401.401 0 0 0 .8 0l.001-.383a.401.401 0 0 0-.398-.403zm0 0M23.602 9.477a.398.398 0 0 0-.403.398v.387a.401.401 0 0 0 .801 0v-.387a.398.398 0 0 0-.398-.398zm0 0M23.602 7.543a.401.401 0 0 0-.403.398v.387a.401.401 0 0 0 .8 0l.001-.387a.4.4 0 0 0-.398-.398zm0 0M23.602 3.676a.402.402 0 0 0-.403.402v.387c0 .223.18.398.403.398A.398.398 0 0 0 24 4.465v-.387a.401.401 0 0 0-.398-.402zm0 0M23.602 1.746a.401.401 0 0 0-.403.399v.386a.401.401 0 0 0 .8 0l.001-.386a.4.4 0 0 0-.398-.399zm0 0M23.602 17.203a.402.402 0 0 0-.403.402v.383a.401.401 0 0 0 .8 0l.001-.383a.401.401 0 0 0-.398-.402zm0 0M23.602 21.066a.402.402 0 0 0-.403.403v.386a.401.401 0 0 0 .801 0v-.386a.401.401 0 0 0-.398-.403zm0 0M23.602 19.137a.398.398 0 0 0-.403.398v.387c0 .223.18.398.403.398a.398.398 0 0 0 .398-.398v-.387a.398.398 0 0 0-.398-.398zm0 0M23.602 11.406a.402.402 0 0 0-.403.403v.382a.401.401 0 0 0 .8 0l.001-.382a.401.401 0 0 0-.398-.403zm0 0M23.602 13.34a.401.401 0 0 0-.403.398v.387a.401.401 0 0 0 .8 0l.001-.387a.4.4 0 0 0-.398-.398zm0 0M23.602 15.27a.402.402 0 0 0-.403.402v.387a.401.401 0 0 0 .801 0v-.387a.401.401 0 0 0-.398-.402zm0 0"/>
</svg>
